X: 2
T: Tongadale, aka The Frozen Haddock
R: reel
C: \251Taigh na Teud/Farquhar MacDonald 
M: C|
L: 1/8
K: Amin
|:AB | "Am"cBcB AEAB | cBcB "F"AFAc | "G"BGDG EDEG | DEGA "Em"BG G/G/G |
"Am"cBcB AEAB | cBcB "F"AFAc | "G"BGDG [1EDDd | "G7"dBcB "Am"A2:|2"Em"EDEG|EDCB,"Am" A,2 |]
|:A,B, | "Am"CA,EA, FA,EA, | GA,EA, "F"FEDC | "G"B,G,DG, EG,DG, | FG,EG, "Em"DCA,B, |
"Am"CA,EA, FA,EA, | GA,EA, "F"FEDC | "G"B,G,DG, EDCB, | "Am"CA,A,G, A,2 :|["Trans""Am"A,2z2 "E7"A3E|| 

#include "RightHeader.h"
% %footer 04/02/18 For use only by Roaring Jelly members
% %text Set 133 NEFFA 2018 continued
$SmallLMargin
$SmallRMargin
% %scale .9
% %vskip 2cm
